Gruvbox-Plus-Dark/actions/16/edit-cut.svg

<svg xmlns="http://www.w3.org/2000/svg" width="16" height="16" viewBox="0 0 16 16">
 <defs>
  <style id="current-color-scheme" type="text/css">
   .ColorScheme-Text { color:#ebdbb2; } .ColorScheme-Highlight { color:#458588; }
  </style>
 </defs>
 <path style="fill:currentColor" class="ColorScheme-Text" d="M 4.4980469 2.0078125 C 3.1182599 2.0088855 2 3.1277747 2 4.5078125 C 2 5.8885125 3.1193 7.0078125 4.5 7.0078125 C 4.94608 7.0078125 5.35613 6.8687925 5.71875 6.6640625 L 7.6875 8.5078125 L 5.71875 10.351562 C 5.35875 10.146563 4.9480469 10.007812 4.4980469 10.007812 C 3.1173469 10.007812 1.9980469 11.127113 1.9980469 12.507812 C 1.9980469 13.888512 3.1173469 15.007812 4.4980469 15.007812 C 5.8787469 15.007812 6.9980469 13.888512 6.9980469 12.507812 C 6.9980469 12.278652 6.9619969 12.062402 6.9042969 11.851562 L 9.0292969 9.7890625 L 13.498047 14.007812 L 14.998047 14.007812 L 14.998047 13.007812 L 6.9042969 5.1640625 C 6.9620969 4.9532225 6.9980469 4.7369725 6.9980469 4.5078125 C 6.9980469 3.1277747 5.879787 2.0088855 4.5 2.0078125 L 4.4980469 2.0078125 z M 13.5 3.0078125 L 9.5625 6.7265625 L 10.875 8.0078125 L 15 4.0078125 L 15 3.0078125 L 13.5 3.0078125 z M 4.5 3.5078125 C 5.05228 3.5078125 5.5 3.9555325 5.5 4.5078125 C 5.5 5.0600925 5.05228 5.5078125 4.5 5.5078125 C 3.94772 5.5078125 3.5 5.0600925 3.5 4.5078125 C 3.5 3.9555325 3.94772 3.5078125 4.5 3.5078125 z M 4.5 11.507812 C 5.05228 11.507812 5.5 11.955532 5.5 12.507812 C 5.5 13.060093 5.05228 13.507812 4.5 13.507812 C 3.94772 13.507812 3.5 13.060093 3.5 12.507812 C 3.5 11.955532 3.94772 11.507812 4.5 11.507812 z"/>
</svg>

<svg width="16" height="16" version="1.1" viewBox="0 0 16 16" xmlns="http://www.w3.org/2000/svg">
  <defs>
    <style type="text/css">.ColorScheme-Text { color:#ebdbb2; } .ColorScheme-Highlight { color:#458588; }</style>
  </defs>
  <path class="ColorScheme-Text" d="m4.498 2.008c-1.38 0.001073-2.498 1.12-2.498 2.5 0 1.381 1.119 2.5 2.5 2.5 0.4461 0 0.8561-0.139 1.219-0.3438l1.969 1.844-1.969 1.844c-0.36-0.205-0.7707-0.3438-1.221-0.3438-1.381 0-2.5 1.119-2.5 2.5 0 1.381 1.119 2.5 2.5 2.5s2.5-1.119 2.5-2.5c0-0.2292-0.03605-0.4454-0.09375-0.6562l2.125-2.062 4.469 4.219h1.5v-1l-8.094-7.844c0.0578-0.2108 0.09375-0.4271 0.09375-0.6562 0-1.38-1.118-2.499-2.498-2.5h-0.001953zm9.002 1-3.938 3.719 1.312 1.281 4.125-4v-1h-1.5zm-9 0.5c0.5523 0 1 0.4477 1 1s-0.4477 1-1 1-1-0.4477-1-1 0.4477-1 1-1zm0 8c0.5523 0 1 0.4477 1 1 0 0.5523-0.4477 1-1 1s-1-0.4477-1-1c0-0.5523 0.4477-1 1-1z" fill="currentColor"/>
</svg>
